X:15707
T:Soling-Anders vals
R:Waltz
O:Sweden
M:3/4
C:Soling Anders
A:Boda
K:Em
B3c BA|B3c BA|B4 e2|B4 ef|\
g4 g2|f4 e2|f3g f2|B6|\
e4 e2|d4 c2|B4 A2|G3F GA|
B3A GB|A3G FG|E6-|E6::\
e4 e2|g3f e2|d6|B6|A3B c2|c2B2 A2|
B4 c2|d6|\
e4 e2|g3f e2|d6|B6|A3B c2|D2E2 F2|G3A GF|G6:|
